X: 31
T: Sheokuren zaiwai shui xinteng
L: 1/16
M: 2/4
K: Bb
d'2d'4d' c' [I:setbarnb 1]| 
b gf'4d'2 | 
c'2 b g b2 d' f' | 
b8 | 
b2d'4d' c' | 
b gf'4d' d' | 
c'2 b g b2 d' f' | 
b2 b gf4 |]

@@@ Tune index: 8905
